assets/icons/threeArrow.svg

<?xml version="1.0" encoding="UTF-8"?>
<svg xmlns="http://www.w3.org/2000/svg" width="75" height="52" viewBox="0 0 75 52" fill="none"> <path d="M73.7878 28.2488C75.1546 26.8819 75.1546 24.6659 73.7878 23.299L51.5139 1.02517C50.1471 -0.341725 47.931 -0.341725 46.5642 1.02517C45.1973 2.39197 45.1973 4.60807 46.5642 5.97487L66.3632 25.7739L46.5642 45.5729C45.1973 46.9397 45.1973 49.1558 46.5642 50.5226C47.931 51.8895 50.1471 51.8895 51.5139 50.5226L73.7878 28.2488ZM70.3129 29.2739H71.3129V22.2739H70.3129V29.2739Z" fill="black"/> <path d="M43.6897 27.4201C44.8228 26.2869 44.8228 24.4497 43.6897 23.3164L25.2231 4.84994C24.0899 3.71669 22.2526 3.71669 21.1195 4.84994C19.9862 5.98311 19.9862 7.8204 21.1195 8.95357L37.5342 25.3683L21.1195 41.783C19.9862 42.9161 19.9862 44.7534 21.1195 45.8866C22.2526 47.0198 24.0899 47.0198 25.2231 45.8866L43.6897 27.4201ZM40.8087 28.27H41.6378V22.4665H40.8087V28.27Z" fill="black"/> <path d="M18.5952 27.5952C19.4949 26.6954 19.4949 25.2367 18.5952 24.3369L3.93306 9.67484C3.03334 8.77505 1.57456 8.77505 0.674838 9.67484C-0.224946 10.5746 -0.224946 12.0333 0.674838 12.9331L13.7078 25.9661L0.674838 38.9991C-0.224946 39.8988 -0.224946 41.3576 0.674838 42.2573C1.57456 43.1571 3.03334 43.1571 3.93306 42.2573L18.5952 27.5952ZM16.3078 28.27H16.9661V23.6621H16.3078V28.27Z" fill="black"/> </svg>

<svg xmlns="http://www.w3.org/2000/svg" width="75" height="52" fill="none"><path d="M73.788 28.249a3.5 3.5 0 0 0 0-4.95L51.514 1.025a3.5 3.5 0 1 0-4.95 4.95l19.8 19.799-19.8 19.799a3.5 3.5 0 1 0 4.95 4.95l22.274-22.274Zm-3.475 1.025h1v-7h-1v7ZM43.69 27.42a2.902 2.902 0 0 0 0-4.104L25.223 4.85a2.902 2.902 0 1 0-4.104 4.104l16.415 16.414L21.12 41.783a2.901 2.901 0 1 0 4.104 4.104L43.69 27.42Zm-2.881.85h.829v-5.803h-.83v5.803ZM18.595 27.595c.9-.9.9-2.358 0-3.258L3.933 9.675a2.304 2.304 0 1 0-3.258 3.258l13.033 13.033L.675 39a2.304 2.304 0 1 0 3.258 3.258l14.662-14.662Zm-2.287.675h.658v-4.608h-.658v4.608Z" fill="#000"/></svg>
